assets/svg/networks/wallet_icp.svg

<svg width="36" height="36" viewBox="0 0 36 36" fill="none" xmlns="http://www.w3.org/2000/svg">
<g clip-path="url(#clip0_52314_201696)">
<rect width="36" height="36" rx="10" fill="#F5F7FF"/>
<g clip-path="url(#clip1_52314_201696)">
<path fill-rule="evenodd" clip-rule="evenodd" d="M18 20.344L18.03 20.308C19.782 22.012 22.308 23.992 24.498 23.992C25.9437 24.0054 27.3355 23.4441 28.3673 22.4314C29.3991 21.4187 29.9864 20.0377 30 18.592C30 15.61 27.54 13.192 24.498 13.192C22.17 13.192 19.878 14.92 18 16.84V20.344ZM24.42 21.808C26.292 21.808 27.81 20.368 27.81 18.592C27.81 16.816 26.292 15.376 24.414 15.376C22.536 15.376 20.706 17.116 19.422 18.592C20.274 19.552 22.542 21.808 24.414 21.808H24.42Z" fill="url(#paint0_linear_52314_201696)"/>
<path fill-rule="evenodd" clip-rule="evenodd" d="M18.072 20.416L17.952 20.296C16.254 21.982 13.752 23.992 11.502 23.992C10.786 23.9991 10.0757 23.8651 9.41161 23.5975C8.74752 23.3299 8.14268 22.934 7.63168 22.4325C7.12069 21.9309 6.71356 21.3336 6.43359 20.6746C6.15361 20.0157 6.00627 19.308 6 18.592C6 15.61 8.46 13.192 11.502 13.192C13.866 13.192 16.062 15.058 17.91 17.05L18.072 16.882V20.416ZM11.58 21.808C9.702 21.808 8.184 20.368 8.184 18.592C8.184 16.816 9.702 15.376 11.58 15.376C13.458 15.376 15.288 17.116 16.572 18.592C15.72 19.552 13.452 21.808 11.58 21.808Z" fill="url(#paint1_linear_52314_201696)"/>
<path d="M16.3441 18.394L16.4881 18.52L17.9581 20.392C19.6861 22.006 22.2061 23.992 24.4981 23.992C25.7628 24.001 26.9915 23.5721 27.9759 22.7781C28.9602 21.9841 29.6394 20.8739 29.8981 19.636C29.4301 20.482 27.7981 21.808 24.8821 21.778C24.727 21.7982 24.5706 21.8082 24.4141 21.808C22.5361 21.808 20.2741 19.552 19.4221 18.592L19.4401 18.568L17.6701 16.438L15.9001 14.758C14.4841 13.678 13.0201 13 11.4121 13C8.69534 13 6.51134 15.16 6.07214 17.74C7.28414 15.544 9.89534 14.836 12.1861 15.442C13.6861 15.7 14.9881 16.894 16.3441 18.394Z" fill="#46ABE3"/>
</g>
</g>
<defs>
<linearGradient id="paint0_linear_52314_201696" x1="31.224" y1="17.9824" x2="4.86" y2="17.9824" gradientUnits="userSpaceOnUse">
<stop stop-color="#F2A528"/>
<stop offset="1" stop-color="#EF5E12"/>
</linearGradient>
<linearGradient id="paint1_linear_52314_201696" x1="8.2548" y1="18.0868" x2="30.5364" y2="18.0868" gradientUnits="userSpaceOnUse">
<stop stop-color="#5F2685"/>
<stop offset="1" stop-color="#DA1980"/>
</linearGradient>
<clipPath id="clip0_52314_201696">
<rect width="36" height="36" fill="white"/>
</clipPath>
<clipPath id="clip1_52314_201696">
<rect width="24" height="24" fill="white" transform="translate(6 6)"/>
</clipPath>
</defs>
</svg>

<svg xmlns="http://www.w3.org/2000/svg" width="36" height="36" fill="none"><g clip-path="url(#a)"><rect width="36" height="36" fill="#F5F7FF" rx="10"/><g clip-path="url(#b)"><path fill="url(#c)" fill-rule="evenodd" d="m18 20.344.03-.036c1.752 1.704 4.278 3.684 6.468 3.684a5.45 5.45 0 0 0 5.502-5.4c0-2.982-2.46-5.4-5.502-5.4-2.328 0-4.62 1.728-6.498 3.648zm6.42 1.464c1.872 0 3.39-1.44 3.39-3.216s-1.518-3.216-3.396-3.216-3.708 1.74-4.992 3.216c.852.96 3.12 3.216 4.992 3.216z" clip-rule="evenodd"/><path fill="url(#d)" fill-rule="evenodd" d="m18.072 20.416-.12-.12c-1.698 1.686-4.2 3.696-6.45 3.696A5.45 5.45 0 0 1 6 18.592c0-2.982 2.46-5.4 5.502-5.4 2.364 0 4.56 1.866 6.408 3.858l.162-.168zm-6.492 1.392c-1.878 0-3.396-1.44-3.396-3.216s1.518-3.216 3.396-3.216 3.708 1.74 4.992 3.216c-.852.96-3.12 3.216-4.992 3.216" clip-rule="evenodd"/><path fill="#46ABE3" d="m16.344 18.394.144.126 1.47 1.872c1.728 1.614 4.248 3.6 6.54 3.6a5.48 5.48 0 0 0 5.4-4.356c-.468.846-2.1 2.172-5.016 2.142q-.233.03-.468.03c-1.878 0-4.14-2.256-4.992-3.216l.018-.024-1.77-2.13-1.77-1.68C14.484 13.678 13.02 13 11.412 13c-2.717 0-4.9 2.16-5.34 4.74 1.212-2.196 3.823-2.904 6.114-2.298 1.5.258 2.802 1.452 4.158 2.952"/></g></g><defs><linearGradient id="c" x1="31.224" x2="4.86" y1="17.982" y2="17.982" gradientUnits="userSpaceOnUse"><stop stop-color="#F2A528"/><stop offset="1" stop-color="#EF5E12"/></linearGradient><linearGradient id="d" x1="8.255" x2="30.536" y1="18.087" y2="18.087" gradientUnits="userSpaceOnUse"><stop stop-color="#5F2685"/><stop offset="1" stop-color="#DA1980"/></linearGradient><clipPath id="a"><path fill="#fff" d="M0 0h36v36H0z"/></clipPath><clipPath id="b"><path fill="#fff" d="M6 6h24v24H6z"/></clipPath></defs></svg>
